X: 3086
T: WEST KILBRIDE
C: A. M. Volti
Q:"Reel."
R: Reel.
%R:reel
B: James Kerr "Merry Melodies" v.3 p.11 #86
Z: 2016 John Chambers <jc:trillian.mit.edu>
N: The rhythm of the 2nd strain's repeat is wrong; not fixed.
M: C
L: 1/8
K: A
ue2 |\
a>A A/A/A (Ac)BA | GABc defg |\
a>A A/A/A (Ac)BA | dBGB A2 ::\
e2 |\
a2ae f2fe | a2ae f2fe |\
agfe dcBA |[1 GABc defg :|[2 GEFG G2 |]

%%sep 1 1 500
%%sep 1 1 500

